assets/Blossom/Flat/blossom_flat.svg

<svg width="32" height="32" viewBox="0 0 32 32" fill="none" xmlns="http://www.w3.org/2000/svg">
<path d="M17.0956 19.8401H15.0956V28.2488C14.3878 26.3103 12.5345 24.9101 10.3556 24.9101H8.28555C8.12555 24.9101 8.00555 25.0401 8.00555 25.1901V25.6101C8.00555 28.0101 9.95555 29.9601 12.2656 29.9801L15.1456 29.9901C15.1796 29.9901 15.2125 29.983 15.2426 29.9701H17.0507C17.0827 29.983 17.118 29.9901 17.1555 29.9901H19.2255C21.9255 29.9901 24.1255 27.8401 24.2655 25.1801C24.2755 25.0301 24.1556 24.9101 24.0155 24.9101L21.1355 24.9201C19.2862 24.9361 17.6675 26.1892 17.0956 27.9198V19.8401Z" fill="#86D72F"/>
<path d="M16.0555 2C13.7055 2 11.8655 4.02 12.0855 6.36L12.2655 8.27L10.2855 7.59C8.06554 6.82 5.67554 8.13 5.11554 10.41C4.56554 12.66 6.03554 14.9 8.32554 15.29L10.1055 15.59L8.64554 17.39C7.16554 19.21 7.56554 21.91 9.52554 23.22C11.4455 24.51 14.0655 23.89 15.2155 21.88L16.1255 20.43L16.8655 21.88C18.0155 23.89 20.6255 24.51 22.5555 23.22C24.5055 21.91 24.9155 19.21 23.4355 17.39L21.9955 15.61L23.8955 15.29C26.1755 14.9 27.6555 12.66 27.1055 10.41C26.5455 8.13 24.1455 6.82 21.9255 7.59L19.9255 8.28L20.0655 6.27C20.1955 3.97 18.3655 2 16.0555 2Z" fill="#D3D3D3"/>
<path d="M15.9955 17.36C18.0832 17.36 19.7755 15.6677 19.7755 13.58C19.7755 11.4924 18.0832 9.80005 15.9955 9.80005C13.9079 9.80005 12.2155 11.4924 12.2155 13.58C12.2155 15.6677 13.9079 17.36 15.9955 17.36Z" fill="#FFB02E"/>
</svg>

<svg xmlns="http://www.w3.org/2000/svg" width="32" height="32" fill="none"><path fill="#86D72F" d="M17.096 19.84h-2v8.409c-.708-1.939-2.562-3.339-4.74-3.339h-2.07a.28.28 0 0 0-.28.28v.42c0 2.4 1.95 4.35 4.26 4.37l2.88.01a.246.246 0 0 0 .097-.02h1.808a.28.28 0 0 0 .105.02h2.07c2.7 0 4.9-2.15 5.04-4.81a.253.253 0 0 0-.25-.27l-2.88.01c-1.85.016-3.468 1.27-4.04 3v-8.08Z"/><path fill="#D3D3D3" d="M16.055 2c-2.35 0-4.19 2.02-3.97 4.36l.18 1.91-1.98-.68a3.98 3.98 0 0 0-5.17 2.82c-.55 2.25.92 4.49 3.21 4.88l1.78.3-1.46 1.8a3.984 3.984 0 0 0 .88 5.83c1.92 1.29 4.54.67 5.69-1.34l.91-1.45.74 1.45a3.995 3.995 0 0 0 5.69 1.34c1.95-1.31 2.36-4.01.88-5.83l-1.44-1.78 1.9-.32a3.993 3.993 0 0 0 3.21-4.88 3.99 3.99 0 0 0-5.18-2.82l-2 .69.14-2.01c.13-2.3-1.7-4.27-4.01-4.27Z"/><path fill="#FFB02E" d="M15.995 17.36a3.78 3.78 0 1 0 0-7.56 3.78 3.78 0 0 0 0 7.56Z"/></svg>
